packages/kaspersky-hexa-ui-icons/src/iconsSVGs/24/SecurityLIVESolid.svg

<svg width="24" height="24" viewBox="0 0 24 24" fill="none" xmlns="http://www.w3.org/2000/svg">
<path fill-rule="evenodd" clip-rule="evenodd" d="M9.8027 3.02189C9.4122 2.63137 8.77902 2.63137 8.38852 3.02189L7.84262 3.56775C4.49484 6.91562 4.49484 12.3436 7.84262 15.6914C8.81784 16.6667 9.96957 17.3578 11.195 17.7649V19.2708H8.19504C7.64267 19.2708 7.19504 19.7186 7.19504 20.2708C7.19504 20.8231 7.64267 21.2708 8.19504 21.2708H16.195C16.7473 21.2708 17.195 20.8231 17.195 20.2708C17.195 19.7186 16.7473 19.2708 16.195 19.2708H13.195V18.1731C15.619 18.3732 18.1118 17.546 19.9664 15.6914L20.5122 15.1456C20.9027 14.7551 20.9027 14.1219 20.5122 13.7314L15.5804 8.7996L17.6208 6.75918C17.7755 6.79754 17.9373 6.8179 18.1039 6.8179C19.2085 6.8179 20.1039 5.92247 20.1039 4.8179C20.1039 3.71333 19.2085 2.8179 18.1039 2.8179C16.9992 2.8179 16.1039 3.71333 16.1039 4.8179C16.1039 5.00958 16.1308 5.19497 16.1811 5.37046L14.1662 7.38539L9.8027 3.02189Z" fill="black"/>
</svg>

<svg xmlns="http://www.w3.org/2000/svg" width="24" height="24" fill="none" viewBox="0 0 24 24"><path fill="#000" fill-rule="evenodd" d="M9.8027 3.0219c-.3905-.3905-1.0237-.3905-1.4142 0l-.5459.5459c-3.3478 3.3478-3.3478 8.7758 0 12.1236.9752.9753 2.127 1.6664 3.3524 2.0735v1.5059h-3c-.5523 0-1 .4478-1 1s.4477 1 1 1h8c.5523 0 1-.4477 1-1s-.4477-1-1-1h-3v-1.0977c2.424.2001 4.9168-.6271 6.7714-2.4817l.5458-.5458c.3905-.3905.3905-1.0237 0-1.4142l-4.9318-4.9318 2.0404-2.0404a2 2 0 0 0 .4831.0587c1.1046 0 2-.8954 2-2s-.8954-2-2-2-2 .8954-2 2c0 .1917.0269.377.0772.5526l-2.0149 2.0149z"/></svg>
